packages/components/src/telekom/icons/weather/sunny/selected.svg

<?xml version="1.0" encoding="UTF-8"?>
<svg width="24px" height="24px" viewBox="0 0 24 24" version="1.1" xmlns="http://www.w3.org/2000/svg" xmlns:xlink="http://www.w3.org/1999/xlink">
    <title>icon/weather/sunny/selected</title>
    <g id="icon/weather/sunny/selected" stroke="none" stroke-width="1" fill="none" fill-rule="evenodd">
        <path d="M12,19.75 C12.3795,19.75 12.6934583,20.0319132 12.7431493,20.3981693 L12.75,20.5 L12.75,23.25 C12.75,23.6645 12.414,24 12,24 C11.6205,24 11.3065417,23.7180868 11.2568507,23.3518307 L11.25,23.25 L11.25,20.5 C11.25,20.0855 11.586,19.75 12,19.75 Z M5.4595,17.48 C5.7525,17.1875 6.2275,17.187 6.5205,17.48 C6.78686364,17.7463636 6.81107851,18.1631405 6.59314463,18.456852 L6.5205,18.541 L4.5755,20.4855 C4.429,20.632 4.237,20.705 4.045,20.705 C3.853,20.705 3.661,20.632 3.5145,20.4855 C3.24813636,20.2191364 3.22392149,19.8023595 3.44185537,19.508648 L3.5145,19.4245 L5.4595,17.48 Z M17.48,17.48 C17.7463636,17.2140909 18.1627273,17.1899174 18.4563636,17.4074793 L18.5405,17.48 L20.486,19.4245 C20.779,19.7175 20.779,20.1925 20.486,20.4855 C20.3395,20.632 20.1475,20.705 19.9555,20.705 C19.8019,20.705 19.6483,20.65796 19.517996,20.564392 L19.425,20.4855 L17.48,18.541 C17.187,18.248 17.187,17.7725 17.48,17.48 Z M12,6.75 C14.8994949,6.75 17.25,9.10050506 17.25,12 C17.25,14.8994949 14.8994949,17.25 12,17.25 C9.10050506,17.25 6.75,14.8994949 6.75,12 C6.75,9.10050506 9.10050506,6.75 12,6.75 Z M3.5,11.25 C3.914,11.25 4.25,11.5855 4.25,12 C4.25,12.3799583 3.96766667,12.6935347 3.60172569,12.7431589 L3.5,12.75 L0.75,12.75 C0.336,12.75 0,12.4145 0,12 C0,11.6200417 0.282333333,11.3064653 0.648274306,11.2568411 L0.75,11.25 L3.5,11.25 Z M23.25,11.25 C23.664,11.25 24,11.5855 24,12 C24,12.3799583 23.7176667,12.6935347 23.3517257,12.7431589 L23.25,12.75 L20.5,12.75 C20.086,12.75 19.75,12.4145 19.75,12 C19.75,11.6200417 20.0323333,11.3064653 20.3982743,11.2568411 L20.5,11.25 L23.25,11.25 Z M19.4255,3.5145 C19.7185,3.222 20.193,3.2215 20.486,3.5145 C20.7523636,3.78086364 20.7765785,4.1976405 20.5586446,4.49135199 L20.486,4.5755 L18.541,6.52 C18.3945,6.6665 18.2025,6.7395 18.0105,6.7395 C17.8185,6.7395 17.6265,6.6665 17.4805,6.52 C17.2141364,6.25363636 17.1899215,5.8368595 17.4078554,5.54314801 L17.4805,5.459 L19.4255,3.5145 Z M3.5145,3.5145 C3.78086364,3.24859091 4.19722727,3.22441736 4.49086364,3.44197934 L4.575,3.5145 L6.5205,5.459 C6.8135,5.752 6.8135,6.227 6.5205,6.52 C6.374,6.6665 6.182,6.7395 5.99,6.7395 C5.8364,6.7395 5.6828,6.69246 5.552496,6.598892 L5.4595,6.52 L3.5145,4.5755 C3.2215,4.2825 3.2215,3.807 3.5145,3.5145 Z M12,0 C12.3795,0 12.6934583,0.281913194 12.7431493,0.648169271 L12.75,0.75 L12.75,3.5 C12.75,3.9145 12.414,4.25 12,4.25 C11.6205,4.25 11.3065417,3.96808681 11.2568507,3.60183073 L11.25,3.5 L11.25,0.75 C11.25,0.3355 11.586,0 12,0 Z" id="Shape" fill="#262626" fill-rule="nonzero"></path>
    </g>
</svg>

<svg width="24" height="24" xmlns="http://www.w3.org/2000/svg"><path d="M12 19.75a.75.75 0 01.743.648l.007.102v2.75a.75.75 0 01-1.493.102l-.007-.102V20.5a.75.75 0 01.75-.75zm-6.54-2.27a.75.75 0 011.133.977l-.072.084-1.946 1.944a.748.748 0 01-1.06 0 .75.75 0 01-.073-.976l.072-.085L5.46 17.48zm12.02 0a.75.75 0 01.976-.073l.085.073 1.945 1.944a.75.75 0 01-.968 1.14l-.093-.079-1.945-1.944a.75.75 0 010-1.061zM12 6.75a5.25 5.25 0 110 10.5 5.25 5.25 0 010-10.5zm-8.5 4.5a.75.75 0 01.102 1.493l-.102.007H.75a.75.75 0 01-.102-1.493l.102-.007H3.5zm19.75 0a.75.75 0 01.102 1.493l-.102.007H20.5a.75.75 0 01-.102-1.493l.102-.007h2.75zm-3.825-7.736a.75.75 0 011.134.977l-.073.085-1.945 1.944a.748.748 0 01-1.06 0 .75.75 0 01-.073-.977l.072-.084 1.945-1.944zm-15.91 0a.75.75 0 01.976-.072l.084.072L6.521 5.46a.75.75 0 01-.969 1.14L5.46 6.52 3.514 4.576a.75.75 0 010-1.061zM12 0a.75.75 0 01.743.648l.007.102V3.5a.75.75 0 01-1.493.102L11.25 3.5V.75A.75.75 0 0112 0z" fill="#000" fill-rule="evenodd"/></svg>
